PortableApps/LibreOfficePortable/App/libreoffice/help/media/icon-themes/cmd/sc_savebackground.svg

<svg viewBox="0 0 16 16" xmlns="http://www.w3.org/2000/svg"><path d="m3 0c-.554 0-1 .446-1 1v14c0 .554.446 1 1 1h3.0039062c.0003004-.0787.00521-.158659.025391-.240234l.1874997-.759766h-3.2167969v-14h10v5.4277344c.279141-.2631723.642184-.4059802 1-.421875v-5.0058594c0-.554-.446-1-1-1zm11 12.488281-1 1.007813v1.503906h-1.494141l-.941406.947266c-.02052.02064-.04623.03404-.06836.05273h2.503907c.554 0 1-.446 1-1z" fill="#4d82b8"/><path d="m3 0c-.554 0-1 .446-1 1v14c0 .554.446 1 1 1h10c.554 0 1-.446 1-1v-14c0-.554-.446-1-1-1zm0 1h10v7l-4 4-2-2-4 5z" fill="#808080"/><path d="m3 1v14l4-5 2 2 4-4v-7z" fill="#fff"/><circle cx="6.5" cy="4.5" fill="#eac282" r="2.5"/><path d="m13 8-4 4-2-2-4 5h10z" fill="#4d82b8"/><path d="m8 8v8h8v-8z" fill="#8959ab"/><g fill="#fff"><rect height="3" rx=".5" width="6" x="9" y="9"/><path d="m10 12.999999c-.554 0-1 .446-1 1v1c0 .554.446 1 1 1v-2h1v2h2c.554 0 1-.446 1-1v-1c0-.554-.446-1-1-1z"/></g></svg>

<svg viewBox="0 0 16 16" xmlns="http://www.w3.org/2000/svg">
  <path
     d="M 3,0 C 2.446,0 2,0.446 2,1 v 14 c 0,0.554 0.446,1 1,1 h 3.0039062 c 3.004e-4,-0.0787 0.00521,-0.158659 0.025391,-0.240234 L 6.2167969,15 H 3 V 1 h 10 v 5.4277344 c 0.279141,-0.2631723 0.642184,-0.4059802 1,-0.421875 V 1 C 14,0.446 13.554,0 13,0 Z m 11,12.488281 -1,1.007813 V 15 h -1.494141 l -0.941406,0.947266 c -0.02052,0.02064 -0.04623,0.03404 -0.06836,0.05273 H 13 c 0.554,0 1,-0.446 1,-1 z"
     fill="#4d82b8"
     />
  <path
     d="M 3 0 C 2.446 0 2 0.446 2 1 L 2 15 C 2 15.554 2.446 16 3 16 L 13 16 C 13.554 16 14 15.554 14 15 L 14 1 C 14 0.446 13.554 0 13 0 L 3 0 z M 3 1 L 13 1 L 13 8 L 9 12 L 7 10 L 3 15 L 3 1 z "
     fill="#808080"
     />
  <path
     d="M 3 1 L 3 15 L 7 10 L 9 12 L 13 8 L 13 1 L 3 1 z "
     fill="#ffffff"
     />
  <circle
     cx="6.5"
     cy="4.5"
     r="2.5"
     fill="#eac282"
     />
  <path
     d="M 13 8 L 9 12 L 7 10 L 3 15 L 13 15 L 13 8 z "
     fill="#4d82b8"
     />
  <path
     style="fill:#8959ab"
     d="M 8 8 L 8 16 L 16 16 L 16 8 L 8 8 z "
     />
  <rect
     y="9"
     x="9"
     width="6"
     height="3"
     fill="#ffffff"
     rx="0.5"
     />
  <path
     d="m 10,12.999999 c -0.554,0 -1,0.446 -1,1 v 1 c 0,0.554 0.446,1 1,1 v -2 h 1 v 2 h 2 c 0.554,0 1,-0.446 1,-1 v -1 c 0,-0.554 -0.446,-1 -1,-1 z"
     fill="#ffffff"
     />
</svg>
